X:1954
T:Bröllopsmarsch från Bredal
S:efter Nils Bernhard Ljunggren
N:Med reservation för eventuell feltolkningar av handstilen står i uppteckningen att läsa: "Albin satt uppe hos Lundkvist en kall natt för att lära denna låt (i tredje läget). Fick ovett då han ej kunde lära den, och gick sedan ut i skogen o grät."
R:Marsch
O:Småland
M:2/4
L:1/16
Z:Nils L
B:[[http://www.smus.se/earkiv/fmk/browselarge.php?lang=sw&katalogid=Sm+12&bildnr=00005|SMUS katalog Sm12 bild 5]]
K:D
(defa) | d'4>a4 | c'2b2a2g2 | f2d'd' d'2d'2 | f4 gfed | A4 A4 | A4 a2>g2 |
f4 d2d2 | d4 !coda!dfad' | b2>b2 g2g2 | g2>b2 d'2b2 | a2>g2 f2g2 | a4 defg |
a2b2 c'2d'2 | b2g2 e2c2 | d4 "e?"fgfe | d4 :: z4 | A4 d2>e2 | f4>g4 |
e2f2 d2e2 | A2AA A2A2 | d2b2 a2g2 | f4>g4 | e2f2 d2e2 | A2AA Ace2 | !coda!d4"DC al fine" :|
(:musicend:)

%green% Innebär "från Bredal" att låten är efter [[Personer/Anders Bredal]]? Någon som vet?
%green% På önskningssidan nämns en låt vars titel liknar denna som finns på en skiva med Björnlert/Hedin. Någon som har skivan får gärna säga om det är den och se om noterna stämmer överens med deras version. /Nils
%blue% Skulle anta att den är efter Bredal. Det finns fyra orter som heter Bredal, men de ligger inte i Markarydstrakten utan tre av dem är i Östergötland och en i Närke. Annars finns det många av Ljunggrens låtar som sägs vara efter Bredal /Jon
(:music:)
